X: 372
T: Bir Gönülde İki Sevdâ
C: Ahmet Rasim Bey
O: Turkey
F: http://compmusic.upf.edu/node/140
N: muhayyer--sarki--aksak--bir_gonulde--ahmet_rasim_bey
N: makam= muhayyer
N: form= sarki
N: usul= aksak = 9/8
M: 9/8
L: 1/16
K: C _2/4B ^3/4f  
Q: 1/4=120
%%MIDI tuningsystem comma53
z4 f2g2 a4 a4 z2 | z4a2 b2c'2 b2a2 g2=f2  | \
w:  Bir  gö nül de   |  i ki  sev *  da   | 
e2d2 d2d2 c2BA A4 z2 | 
w:  *  *  so nu  bil *  *  mem   | 
z2 BAB2 c2cB BAB4z2  | z2G4A2 A8 z2 | \
w:  ne  *  *  o lur    |  Ne  o lur   | 
z2 d4 d2c2 B2A4G2  | 
w:  ne  o lur  *  *  a  | 
c16 (3BAB | z4d2 d2d^c _7/8B2B4AG  | \
w:  man   |  de li  gön  | 
G8 G8-G2 | z4A2 B2c2 B2d2 B2BA  | 
w:  lüm   |  ba na  o  | 
A6c'2 b2d'2 c'6 | z4b2 c'2c'4c'4b2  | \
w:  lur   SAZ  |  Bu  da  bir  hoş   | 
b4 b2b2 b4 b4 ag | g4f2 g2a4a4z2  | 
w:  *  o yun_ am ma   |  *  so nu  bil mem   | 
z4 a2b2 c'2b2 a2g2 =f2 | e2 d2d2 d2c2 BAA4z2  | \
w:  ne  o lur    |  *  *  so nu  bil *  *  mem   | 
z2BA B2c2 cBBA B4 z2 | 
w:  ne  *  *  o lur    | 
z2 G4 A2A8z2  | z2d4d2 c2B2 A4 G2 | c16(3BAB  | \
w:  Ne  o lur   |  ne  o lur  *  *  a  |  man   | 
z4 d2d2 d^c_7/8B2 B4 AG | 
w:  de li  gön  | 
G8G8-G2  | z4 A2B2 c2B2 d2B2 A2 | A16z2  | |


